ukui-icon-theme-default/scalable/mimetypes/application-x-mobipocket-ebook.svg

<svg xmlns="http://www.w3.org/2000/svg" xmlns:xlink="http://www.w3.org/1999/xlink" viewBox="0 0 96 96"><defs><style>.cls-1{fill:url(#未命名的渐变_46);}.cls-2{fill:#c4c6cc;}.cls-3{fill:url(#未命名的渐变_250);}.cls-4{opacity:0.8;}.cls-5{fill:#818696;}.cls-6{fill:none;stroke:#818696;stroke-miterlimit:10;stroke-width:2px;}</style><linearGradient id="未命名的渐变_46" x1="48" y1="89.5" x2="48" y2="6.5" gradientUnits="userSpaceOnUse"><stop offset="0" stop-color="#d6d9e6"/><stop offset="1" stop-color="#f5f5f5"/></linearGradient><linearGradient id="未命名的渐变_250" x1="63.66" y1="49.03" x2="70.48" y2="43.35" gradientTransform="matrix(1, 0, 0, -1, 0, 122)" gradientUnits="userSpaceOnUse"><stop offset="0" stop-opacity="0.1"/><stop offset="1" stop-opacity="0.05"/></linearGradient></defs><title>96</title><g id="白色"><g id="_96" data-name="96"><g id="_48" data-name=" 48"><path class="cls-1" d="M23,89.5A8.51,8.51,0,0,1,14.5,81V15A8.51,8.51,0,0,1,23,6.5H73A8.51,8.51,0,0,1,81.5,15V68.79L60.79,89.5Z"/><path class="cls-2" d="M73,7a8,8,0,0,1,8,8V68.59L60.59,89H23a8,8,0,0,1-8-8V15a8,8,0,0,1,8-8H73m0-1H23a9,9,0,0,0-9,9V81a9,9,0,0,0,9,9H61L82,69V15a9,9,0,0,0-9-9Z"/></g><path class="cls-3" d="M67,69H82L61,90V75A6,6,0,0,1,67,69Z"/><g class="cls-4"><path class="cls-5" d="M67,31V57H53a7.42,7.42,0,0,0-5,2.12A7.42,7.42,0,0,0,43,57H29V31H43c1.1,0,2.21,1.25,2.5,1.66L48,36.43l2.5-3.74C50.79,32.25,51.9,31,53,31H67m3-3H53c-3,0-5,3-5,3s-2-3-5-3H26V60H43c3,0,5,4,5,4s2-4,5-4H70V28Z"/><line class="cls-6" x1="33" y1="45" x2="45" y2="45"/><line class="cls-6" x1="33" y1="49" x2="45" y2="49"/><line class="cls-6" x1="33" y1="53" x2="45" y2="53"/><line class="cls-6" x1="53" y1="37" x2="65" y2="37"/><line class="cls-6" x1="41" y1="41" x2="45" y2="41"/><line class="cls-6" x1="41" y1="37" x2="45" y2="37"/><line class="cls-6" x1="53" y1="41" x2="65" y2="41"/><line class="cls-6" x1="53" y1="45" x2="65" y2="45"/><line class="cls-6" x1="53" y1="49" x2="65" y2="49"/><line class="cls-6" x1="53" y1="53" x2="59" y2="53"/><rect class="cls-5" x="33" y="36" width="6" height="6"/></g></g></g></svg>

<?xml version="1.0" encoding="utf-8"?>
<!-- Generator: Adobe Illustrator 24.0.0, SVG Export Plug-In . SVG Version: 6.00 Build 0)  -->
<svg version="1.1" id="图层_1" xmlns="http://www.w3.org/2000/svg" xmlns:xlink="http://www.w3.org/1999/xlink" x="0px" y="0px"
	 viewBox="0 0 96 96" enable-background="new 0 0 96 96" xml:space="preserve">
<title>96</title>
<g id="白色">
	<g id="_96">
		<g id="_48">
			
				<linearGradient id="SVGID_1_" gradientUnits="userSpaceOnUse" x1="48" y1="6.5" x2="48" y2="89.5" gradientTransform="matrix(1 0 0 -1 0 96)">
				<stop  offset="0" style="stop-color:#D6D9E6"/>
				<stop  offset="1" style="stop-color:#F5F5F5"/>
			</linearGradient>
			<path fill="url(#SVGID_1_)" d="M23,89.5c-4.7,0-8.5-3.8-8.5-8.5V15c0-4.7,3.8-8.5,8.5-8.5h50c4.7,0,8.5,3.8,8.5,8.5v53.8
				L60.8,89.5H23z"/>
			<path fill="#C4C6CC" d="M73,7c4.4,0,8,3.6,8,8v53.6L60.6,89H23c-4.4,0-8-3.6-8-8V15c0-4.4,3.6-8,8-8H73 M73,6H23c-5,0-9,4-9,9v66
				c0,5,4,9,9,9h38l21-21V15C82,10,78,6,73,6z"/>
		</g>
		
			<linearGradient id="SVGID_2_" gradientUnits="userSpaceOnUse" x1="63.6598" y1="46.9703" x2="70.4798" y2="52.6503" gradientTransform="matrix(1 0 0 1 0 26)">
			<stop  offset="0" style="stop-color:#000000;stop-opacity:0.1"/>
			<stop  offset="1" style="stop-color:#000000;stop-opacity:5.000000e-02"/>
		</linearGradient>
		<path fill="url(#SVGID_2_)" d="M67,69h15L61,90V75C61,71.7,63.7,69,67,69z"/>
		<g opacity="0.8">
			<path fill="#818696" d="M67,31v26H53c-1.9,0-3.7,0.8-5,2.1c-1.3-1.3-3.1-2.1-5-2.1H29V31h14c1.1,0,2.2,1.3,2.5,1.7l2.5,3.8
				l2.5-3.7c0.3-0.4,1.4-1.7,2.5-1.7H67 M70,28H53c-3,0-5,3-5,3s-2-3-5-3H26v32h17c3,0,5,4,5,4s2-4,5-4h17V28z"/>
			<line fill="none" stroke="#818696" stroke-width="2" stroke-miterlimit="10" x1="33" y1="45" x2="45" y2="45"/>
			<line fill="none" stroke="#818696" stroke-width="2" stroke-miterlimit="10" x1="33" y1="49" x2="45" y2="49"/>
			<line fill="none" stroke="#818696" stroke-width="2" stroke-miterlimit="10" x1="33" y1="53" x2="45" y2="53"/>
			<line fill="none" stroke="#818696" stroke-width="2" stroke-miterlimit="10" x1="53" y1="37" x2="65" y2="37"/>
			<line fill="none" stroke="#818696" stroke-width="2" stroke-miterlimit="10" x1="41" y1="41" x2="45" y2="41"/>
			<line fill="none" stroke="#818696" stroke-width="2" stroke-miterlimit="10" x1="41" y1="37" x2="45" y2="37"/>
			<line fill="none" stroke="#818696" stroke-width="2" stroke-miterlimit="10" x1="53" y1="41" x2="65" y2="41"/>
			<line fill="none" stroke="#818696" stroke-width="2" stroke-miterlimit="10" x1="53" y1="45" x2="65" y2="45"/>
			<line fill="none" stroke="#818696" stroke-width="2" stroke-miterlimit="10" x1="53" y1="49" x2="65" y2="49"/>
			<line fill="none" stroke="#818696" stroke-width="2" stroke-miterlimit="10" x1="53" y1="53" x2="59" y2="53"/>
			<rect x="33" y="36" fill="#818696" width="6" height="6"/>
		</g>
	</g>
</g>
</svg>
